svg/serverless.svg

<svg viewBox="0 0 20 20" xmlns="http://www.w3.org/2000/svg">
<rect width="100%" height="100%" fill="#FD5750"/>
<path d="M7.55 6.8763L8.36375 4.48755H3V6.8763H7.55ZM17 6.8763V4.48755H10.9188L10.1488 6.8763H17ZM6.15875 11.0413L6.87625 8.6613H3V11.0413H6.15875ZM17 11.0413V8.6613H9.37875L8.66125 11.0413H17ZM4.68 15.5125L5.38 13.1238H3V15.5125H4.68ZM17 15.5125V13.1238H7.9525L7.17375 15.5125H17Z" fill="white"/>
</svg>

<svg xmlns="http://www.w3.org/2000/svg" viewBox="0 0 20 20">
  <rect width="100%" height="100%" fill="#FD5750"/>
  <path fill="#fff" d="m7.55 6.88.81-2.4H3v2.4h4.55Zm9.45 0v-2.4h-6.08l-.77 2.4H17ZM6.16 11.04l.72-2.38H3v2.38h3.16Zm10.84 0V8.66H9.38l-.72 2.38H17ZM4.68 15.51l.7-2.39H3v2.4h1.68Zm12.32 0v-2.39H7.95l-.78 2.4H17Z"/>
</svg>
